public/assets/techs/framer-motion.svg

<svg width="20" height="20" viewBox="0 0 20 20" fill="none" xmlns="http://www.w3.org/2000/svg">
<path d="M10.0001 18.75C9.92026 18.75 9.84346 18.7195 9.78544 18.6647L6.97294 16.0085L4.16044 13.3522C4.12951 13.323 4.10487 13.2878 4.08804 13.2487C4.0712 13.2096 4.06251 13.1675 4.06251 13.125V7.8125C4.06251 7.72962 4.09544 7.65014 4.15404 7.59153C4.21265 7.53293 4.29213 7.5 4.37501 7.5H9.214L4.16044 2.7272C4.11495 2.68424 4.0834 2.62862 4.06988 2.56753C4.05636 2.50644 4.06149 2.44269 4.08461 2.38455C4.10772 2.32641 4.14776 2.27654 4.19954 2.24141C4.25131 2.20628 4.31244 2.1875 4.37501 2.1875H15.625C15.7079 2.1875 15.7874 2.22043 15.846 2.27903C15.9046 2.33764 15.9375 2.41712 15.9375 2.5V7.8125C15.9375 7.89538 15.9046 7.97486 15.846 8.03347C15.7874 8.09207 15.7079 8.125 15.625 8.125H10.786L15.8396 12.8978C15.8851 12.9408 15.9166 12.9964 15.9301 13.0575C15.9437 13.1186 15.9385 13.1823 15.9154 13.2404C15.8923 13.2986 15.8523 13.3485 15.8005 13.3836C15.7487 13.4187 15.6876 13.4375 15.625 13.4375H10.3125V18.4375C10.3125 18.5204 10.2796 18.5998 10.221 18.6585C10.1624 18.7171 10.0829 18.75 10.0001 18.75ZM4.68751 12.9903L9.68751 17.7125V13.125C9.68751 13.0421 9.72044 12.9626 9.77904 12.904C9.83765 12.8454 9.91713 12.8125 10 12.8125H14.839L9.87576 8.125H4.68751V12.9903ZM10.1243 7.5H15.3125V2.8125H5.16102L10.1243 7.5Z" fill="#EEEEEE"/>
</svg>

<svg xmlns="http://www.w3.org/2000/svg" width="20" height="20" fill="none" xmlns:v="https://vecta.io/nano"><path d="M10 18.75c-.08 0-.157-.03-.215-.085l-2.812-2.656-2.812-2.656c-.031-.029-.056-.064-.072-.104s-.026-.081-.026-.124V7.813c0-.083.033-.162.092-.221s.138-.092.221-.092h4.839L4.16 2.727c-.045-.043-.077-.099-.091-.16s-.008-.125.015-.183.063-.108.115-.143.113-.054.175-.054h11.25c.083 0 .162.033.221.092s.091.138.091.221v5.313c0 .083-.033.162-.091.221s-.138.092-.221.092h-4.839l5.054 4.773c.045.043.077.099.09.16s.008.125-.015.183-.063.108-.115.143-.113.054-.175.054h-5.312v5c0 .083-.033.162-.091.221s-.138.091-.221.091zm-5.313-5.76l5 4.722v-4.587c0-.083.033-.162.092-.221s.138-.091.221-.091h4.839L9.876 8.125H4.687v4.865zm5.437-5.49h5.188V2.813H5.161L10.124 7.5z" fill="#e602d1"/></svg>
